X:170
T: Heilige drei Koenige
N: A0532B
O: Europa, Mitteleuropa, Deutschland
N: Andernacher Gsgb. 1608 S. 142
R: Romanze, Ballade, Lied, religioeses Lied
M: 4/2
L: 1/4
K: G
G2 | G2d2d2d2 | c2_B2A2z
c | c2c2c2c2 | _BdcBA2z
A | d2_Bc2B | A2G2z
c | c2c2c2c2 | _BdcBA2z
A | d2_Bc2B | A2G4

